Papirus/16x16/panel/network-wired-offline.svg

<svg width="16" height="16" version="1.1" xmlns="http://www.w3.org/2000/svg">
 <defs>
  <style id="current-color-scheme" type="text/css">.ColorScheme-Text { color:#dfdfdf; } .ColorScheme-Highlight { color:#4285f4; } .ColorScheme-NeutralText { color:#ff9800; } .ColorScheme-PositiveText { color:#4caf50; } .ColorScheme-NegativeText { color:#f44336; }</style>
 </defs>
 <path class="ColorScheme-Text" d="m1 0.9999996s-1 0-1 1.0000001v10c0 1 1 1 1 1h2l1 1h6v-2h-5l-1-1h-2v-8.0000003h1v1.9999999h1v-1.9999999h1v1.9999999h1v-1.9999999h1v1.9999999h1.0000002v-1.9999999h1v1.9999999h0.9999998v-1.9999999h1v1.9999999h1v-1.9999999h1v6h2v-7c0-1.0000001-1-1.0000001-1-1.0000001z" style="fill:currentColor;opacity:.35"/>
 <path class="ColorScheme-Text" d="m11 10v1c0 0.27 0.1 0.53 0.28 0.72l0.78 0.78-0.78 0.78c-0.18 0.18-0.28 0.44-0.28 0.72v1h1c0.28 0 0.54-0.1 0.72-0.28l0.78-0.79 0.78 0.79c0.18 0.18 0.44 0.28 0.72 0.28h1v-1c0-0.28-0.1-0.54-0.28-0.72l-0.78-0.78 0.78-0.78c0.18-0.19 0.28-0.45 0.28-0.72v-1h-1c-0.28 0-0.54 0.1-0.72 0.28l-0.78 0.78-0.78-0.78c-0.18-0.18-0.44-0.28-0.72-0.28z" style="fill:currentColor"/>
</svg>

<svg xmlns="http://www.w3.org/2000/svg" width="16" height="16" version="1.1">
 <defs>
  <style id="current-color-scheme" type="text/css">
   .ColorScheme-Text { color:#dfdfdf; } .ColorScheme-Highlight { color:#4285f4; } .ColorScheme-NeutralText { color:#ff9800; } .ColorScheme-PositiveText { color:#4caf50; } .ColorScheme-NegativeText { color:#f44336; }
  </style>
 </defs>
 <path style="opacity:0.35;fill:currentColor" class="ColorScheme-Text" d="m 1,0.9999996 c 0,0 -1,0 -1,1.0000001 V 12 c 0,1 1,1 1,1 h 2 l 1,1 h 6 V 12 H 5 L 4,11 H 2 V 2.9999997 H 3 V 4.9999996 H 4 V 2.9999997 H 5 V 4.9999996 H 6 V 2.9999997 H 7 V 4.9999996 H 8.0000002 V 2.9999997 h 1 V 4.9999996 H 10 V 2.9999997 h 1 v 1.9999999 h 1 V 2.9999997 h 1 v 6 h 2 v -7 C 15,0.9999996 14,0.9999996 14,0.9999996 Z"/>
 <path style="fill:currentColor" class="ColorScheme-Text" d="m 11,10 v 1 c 0,0.27 0.1,0.53 0.28,0.72 l 0.78,0.78 -0.78,0.78 C 11.1,13.46 11,13.72 11,14 v 1 h 1 c 0.28,0 0.54,-0.1 0.72,-0.28 l 0.78,-0.79 0.78,0.79 C 14.46,14.9 14.72,15 15,15 h 1 v -1 c 0,-0.28 -0.1,-0.54 -0.28,-0.72 L 14.94,12.5 15.72,11.72 C 15.9,11.53 16,11.27 16,11 v -1 h -1 c -0.28,0 -0.54,0.1 -0.72,0.28 L 13.5,11.06 12.72,10.28 C 12.54,10.1 12.28,10 12,10 Z"/>
</svg>
